svg/u1f644.svg

<svg viewBox="0 0 128 128" xmlns="http://www.w3.org/2000/svg" xmlns:xlink="http://www.w3.org/1999/xlink">
  <g id="gold">
    <radialGradient id="face_1_" cx="63.6" cy="1104.9" gradientTransform="matrix(1 0 0 1 0 -1042)" gradientUnits="userSpaceOnUse" r="56.9597">
      <stop offset="0.5" stop-color="#FDE030"/>
      <stop offset="0.92" stop-color="#F7C02B"/>
      <stop offset="1" stop-color="#F4A223"/>
    </radialGradient>
    <path id="face" d="M63.6,118.8c-27.9,0-58-17.5-58-55.9S35.7,7,63.6,7c15.5,0,29.8,5.1,40.4,14.4 c11.5,10.2,17.6,24.6,17.6,41.5s-6.1,31.2-17.6,41.4C93.4,113.6,79,118.8,63.6,118.8z" fill="url(#face_1_)"/>
    <path d="M49.52,41c-0.34-0.19-0.67-0.38-1-0.54c-8.35-4.15-18.48-0.75-22.63,7.6s-0.75,18.48,7.6,22.63 c8.35,4.15,18.48,0.75,22.63-7.6C60.07,55.14,57.19,45.48,49.52,41z" fill="#FFFFFF"/>
    <g>
      <defs>
        <path id="SVGID_1_" d="M49.52,41c-0.34-0.19-0.67-0.38-1-0.54c-8.35-4.15-18.48-0.75-22.63,7.6s-0.75,18.48,7.6,22.63 c8.35,4.15,18.48,0.75,22.63-7.6C60.07,55.14,57.19,45.48,49.52,41z"/>
      </defs>
      <clipPath id="SVGID_2_">
        <use overflow="visible" xlink:href="#SVGID_1_"/>
      </clipPath>
      <g clip-path="url(#SVGID_2_)">
        <circle cx="41.75" cy="43.52" fill="#422B0D" r="7.31"/>
      </g>
    </g>
    <path d="M94.16,41c-0.34-0.19-0.68-0.38-1-0.54c-8.32-4.14-18.41-0.74-22.55,7.57 c-4.14,8.32-0.74,18.41,7.57,22.55c8.32,4.14,18.41,0.74,22.55-7.57C104.67,55.09,101.8,45.47,94.16,41z" fill="#FFFFFF"/>
    <g>
      <defs>
        <path id="SVGID_3_" d="M94.16,41c-0.34-0.19-0.68-0.38-1-0.54c-8.32-4.14-18.41-0.74-22.55,7.57 c-4.14,8.32-0.74,18.41,7.57,22.55c8.32,4.14,18.41,0.74,22.55-7.57C104.67,55.09,101.8,45.47,94.16,41z"/>
      </defs>
      <clipPath id="SVGID_4_">
        <use overflow="visible" xlink:href="#SVGID_3_"/>
      </clipPath>
      <g clip-path="url(#SVGID_4_)">
        <circle cx="86.38" cy="43.52" fill="#422B0D" r="7.31"/>
      </g>
    </g>
    <path d="M69.71,55.84c0.61,4.13,2.64,7.92,5.74,10.72c1.47,1.29,3.17,2.31,5,3c1.82,0.69,3.75,1.03,5.69,1 c3.95,0,7.77-1.45,10.72-4.07c3.1-2.8,5.13-6.59,5.74-10.72h0.2c0,9.2-7.46,16.66-16.66,16.66s-16.66-7.46-16.66-16.66 c0,0,0,0,0-0.01L69.71,55.84z" fill="#F4A223"/>
    <path d="M25.13,55.84c0.61,4.13,2.64,7.92,5.74,10.72c1.47,1.29,3.17,2.31,5,3c1.82,0.69,3.75,1.03,5.69,1 c3.95,0,7.76-1.45,10.72-4.07c3.1-2.8,5.13-6.59,5.74-10.72h0.2c0,9.2-7.46,16.66-16.66,16.66S24.9,64.98,24.9,55.78 c0,0,0,0,0-0.01L25.13,55.84z" fill="#F4A223"/>
    <path d="M111.49,29.67c5.33,8.6,8.11,18.84,8.11,30.23c0,16.9-6.1,31.2-17.6,41.4 c-10.6,9.3-25,14.5-40.4,14.5c-18.06,0-37-7.35-48.18-22.94c10.76,17.66,31,25.94,50.18,25.94c15.4,0,29.8-5.2,40.4-14.5 c11.5-10.2,17.6-24.5,17.6-41.4C121.6,50.16,118.13,38.84,111.49,29.67z" fill="#EB8F00"/>
  </g>
  <g id="facial_expressions">
    <path id="mouth" d="M75,98H53c-2.21,0-4-1.79-4-4s1.79-4,4-4h22c2.21,0,4,1.79,4,4S77.21,98,75,98z" fill="#422B0D"/>
  </g>
</svg>

<svg viewBox="0 0 128 128" xmlns="http://www.w3.org/2000/svg">
  <defs>
    <radialGradient id="face_1_" cx="63.6" cy="62.9" gradientUnits="userSpaceOnUse" r="56.9597">
      <stop offset="0.5" stop-color="#FDE030"/>
      <stop offset="0.92" stop-color="#F7C02B"/>
      <stop offset="1" stop-color="#F4A223"/>
    </radialGradient>
  </defs>
  <path id="face" d="M63.6,118.8 C35.7,118.8 5.6,101.3 5.6,62.9 C5.6,24.5 35.7,7 63.6,7 C79.1,7 93.4,12.1 104,21.4 C115.5,31.6 121.6,46 121.6,62.9 C121.6,79.8 115.5,94.1 104,104.3 C93.4,113.6 79,118.8 63.6,118.8 Z" fill="url(#face_1_)"/>
  <path d="M49.52,41 C49.18,40.81 48.85,40.62 48.52,40.46 C40.17,36.31 30.04,39.71 25.89,48.06 C21.74,56.41 25.14,66.54 33.49,70.69 C41.84,74.84 51.97,71.44 56.12,63.09 C60.07,55.14 57.19,45.48 49.52,41 Z" fill="#FFFFFF"/>
  <path d="M49.06,43.52 C49.06,47.557 45.787,50.83 41.75,50.83 C37.713,50.83 34.44,47.557 34.44,43.52 C34.44,42.072 34.861,40.723 35.587,39.587 C39.638,38.215 44.207,38.373 48.352,40.378 C48.806,41.33 49.06,42.395 49.06,43.52 Z" fill="#422B0D"/>
  <path d="M94.16,41 C93.82,40.81 93.48,40.62 93.16,40.46 C84.84,36.32 74.75,39.72 70.61,48.03 C66.47,56.35 69.87,66.44 78.18,70.58 C86.5,74.72 96.59,71.32 100.73,63.01 C104.67,55.09 101.8,45.47 94.16,41 Z" fill="#FFFFFF"/>
  <path d="M93.69,43.52 C93.69,47.557 90.417,50.83 86.38,50.83 C82.343,50.83 79.07,47.557 79.07,43.52 C79.07,42.085 79.484,40.746 80.198,39.617 C84.249,38.222 88.826,38.365 92.979,40.371 C93.435,41.325 93.69,42.393 93.69,43.52 Z" fill="#422B0D"/>
  <path d="M69.71,55.84 C70.32,59.97 72.35,63.76 75.45,66.56 C76.92,67.85 78.62,68.87 80.45,69.56 C82.27,70.25 84.2,70.59 86.14,70.56 C90.09,70.56 93.91,69.11 96.86,66.49 C99.96,63.69 101.99,59.9 102.6,55.77 L102.8,55.77 C102.8,64.97 95.34,72.43 86.14,72.43 C76.94,72.43 69.48,64.97 69.48,55.77 C69.48,55.77 69.48,55.77 69.48,55.76 L69.71,55.84 Z" fill="#F4A223"/>
  <path d="M25.13,55.84 C25.74,59.97 27.77,63.76 30.87,66.56 C32.34,67.85 34.04,68.87 35.87,69.56 C37.69,70.25 39.62,70.59 41.56,70.56 C45.51,70.56 49.32,69.11 52.28,66.49 C55.38,63.69 57.41,59.9 58.02,55.77 L58.22,55.77 C58.22,64.97 50.76,72.43 41.56,72.43 C32.36,72.43 24.9,64.98 24.9,55.78 C24.9,55.78 24.9,55.78 24.9,55.77 L25.13,55.84 Z" fill="#F4A223"/>
  <path d="M111.49,29.67 C116.82,38.27 119.6,48.51 119.6,59.9 C119.6,76.8 113.5,91.1 102,101.3 C91.4,110.6 77,115.8 61.6,115.8 C43.54,115.8 24.6,108.45 13.42,92.86 C24.18,110.52 44.42,118.8 63.6,118.8 C79,118.8 93.4,113.6 104,104.3 C115.5,94.1 121.6,79.8 121.6,62.9 C121.6,50.16 118.13,38.84 111.49,29.67 Z" fill="#EB8F00"/>
  <path id="mouth" d="M75,98 L53,98 C50.79,98 49,96.21 49,94 C49,91.79 50.79,90 53,90 L75,90 C77.21,90 79,91.79 79,94 C79,96.21 77.21,98 75,98 Z" fill="#422B0D"/>
</svg>
